public/images/icons/yearn.svg

<svg width="84" height="84" viewBox="0 0 84 84" fill="none" xmlns="http://www.w3.org/2000/svg">
<path fill-rule="evenodd" clip-rule="evenodd" d="M80.808 25.956C82.908 30.996 84 36.54 84 42C84 47.46 82.908 53.088 80.808 58.128C78.708 63.168 75.6 67.872 71.736 71.736C67.788 75.6 63.084 78.708 58.044 80.808C53.004 82.908 47.46 84 42 84C36.54 84 30.912 82.908 25.872 80.808C20.832 78.708 16.128 75.6 12.264 71.736C8.4 67.788 5.292 63.084 3.192 58.044C1.092 53.004 0 47.46 0 42C0 36.54 1.092 31.08 3.192 25.956C5.292 20.832 8.4 16.212 12.264 12.264C16.212 8.4 20.916 5.292 25.956 3.192C30.996 1.092 36.54 0 42 0C47.46 0 52.92 1.092 58.044 3.192C63.168 5.292 67.788 8.4 71.736 12.264C75.6 16.212 78.708 20.916 80.808 25.956ZM37.38 40.9079V36.3719C33.936 34.6919 31.5 31.0799 31.5 26.9639C31.5 21.1679 36.204 16.4639 42 16.4639C48.552 16.4639 53.256 21.1679 53.256 26.9639C53.256 28.3919 52.92 29.8199 52.248 31.4999L50.4 25.4519L46.704 26.6279L49.98 39.1439L62.748 34.4399L61.152 30.7439L56.364 32.3399C57.204 30.4919 57.372 29.0639 57.372 26.8799C57.372 18.7319 50.82 12.1799 41.916 12.1799C33.768 12.1799 27.216 18.7319 27.216 26.8799C27.3 33.4319 31.5 38.9759 37.38 40.9079ZM44.184 23.0159V60.9839H39.816V23.0159H44.184ZM46.62 47.6279V43.0919C52.5 45.0239 56.7 50.5679 56.784 57.1199C56.784 65.2679 50.232 71.8199 42.084 71.8199C33.18 71.8199 26.628 65.2679 26.628 57.1199C26.628 54.9359 26.796 53.5079 27.636 51.6599L22.848 53.2559L21.252 49.5599L34.02 44.8559L37.296 57.3719L33.6 58.5479L31.752 52.4999C31.08 54.1799 30.744 55.6079 30.744 57.0359C30.744 62.8319 35.448 67.5359 42 67.5359C47.796 67.5359 52.5 62.8319 52.5 57.0359C52.5 52.9199 50.064 49.3079 46.62 47.6279Z" fill="url(#paint0_linear_56_87)"/>
<defs>
<linearGradient id="paint0_linear_56_87" x1="2.50172e-06" y1="42" x2="67.2179" y2="8.41347" gradientUnits="userSpaceOnUse">
<stop stop-color="#FFE7E0"/>
<stop offset="0.109375" stop-color="#F8DBF4"/>
<stop offset="0.526042" stop-color="#C4DDFF"/>
<stop offset="1" stop-color="#CAE9FF"/>
</linearGradient>
</defs>
</svg>

<svg fill="none" height="84" viewBox="0 0 84 84" width="84" xmlns="http://www.w3.org/2000/svg" xmlns:xlink="http://www.w3.org/1999/xlink"><linearGradient id="a" gradientUnits="userSpaceOnUse" x1=".000003" x2="67.2179" y1="42" y2="8.41347"><stop offset="0" stop-color="#ffe7e0"/><stop offset=".109375" stop-color="#f8dbf4"/><stop offset=".526042" stop-color="#c4ddff"/><stop offset="1" stop-color="#cae9ff"/></linearGradient><path clip-rule="evenodd" d="m80.808 25.956c2.1 5.04 3.192 10.584 3.192 16.044s-1.092 11.088-3.192 16.128-5.208 9.744-9.072 13.608c-3.948 3.864-8.652 6.972-13.692 9.072s-10.584 3.192-16.044 3.192-11.088-1.092-16.128-3.192-9.744-5.208-13.608-9.072c-3.864-3.948-6.972-8.652-9.072-13.692s-3.192-10.584-3.192-16.044 1.092-10.92 3.192-16.044 5.208-9.744 9.072-13.692c3.948-3.864 8.652-6.972 13.692-9.072s10.584-3.192 16.044-3.192 10.92 1.092 16.044 3.192 9.744 5.208 13.692 9.072c3.864 3.948 6.972 8.652 9.072 13.692zm-43.428 14.9519v-4.536c-3.444-1.68-5.88-5.292-5.88-9.408 0-5.796 4.704-10.5 10.5-10.5 6.552 0 11.256 4.704 11.256 10.5 0 1.428-.336 2.856-1.008 4.536l-1.848-6.048-3.696 1.176 3.276 12.516 12.768-4.704-1.596-3.696-4.788 1.596c.84-1.848 1.008-3.276 1.008-5.46 0-8.148-6.552-14.7-15.456-14.7-8.148 0-14.7 6.552-14.7 14.7.084 6.552 4.284 12.096 10.164 14.028zm6.804-17.892v37.968h-4.368v-37.968zm2.436 24.612v-4.536c5.88 1.932 10.08 7.476 10.164 14.028 0 8.148-6.552 14.7-14.7 14.7-8.904 0-15.456-6.552-15.456-14.7 0-2.184.168-3.612 1.008-5.46l-4.788 1.596-1.596-3.696 12.768-4.704 3.276 12.516-3.696 1.176-1.848-6.048c-.672 1.68-1.008 3.108-1.008 4.536 0 5.796 4.704 10.5 11.256 10.5 5.796 0 10.5-4.704 10.5-10.5 0-4.116-2.436-7.728-5.88-9.408z" fill="url(#a)" fill-rule="evenodd"/></svg>
